icons/lactose_free.svg

<svg width="48" height="48" viewBox="0 0 48 48" fill="none" xmlns="http://www.w3.org/2000/svg">
<path fill-rule="evenodd" clip-rule="evenodd" d="M24 42C33.9411 42 42 33.9411 42 24C42 14.0589 33.9411 6 24 6C14.0589 6 6 14.0589 6 24C6 33.9411 14.0589 42 24 42ZM24 44C35.0457 44 44 35.0457 44 24C44 12.9543 35.0457 4 24 4C12.9543 4 4 12.9543 4 24C4 35.0457 12.9543 44 24 44Z" fill="black"/>
<path fill-rule="evenodd" clip-rule="evenodd" d="M27.6667 13.0435L30 22.1739V35.5652C30 36.9099 28.9553 38 27.6667 38H20.3333C19.0447 38 18 36.9099 18 35.5652V22.1739L20.3333 13.0435C20.3333 13.0435 19.1667 12.4348 19.1667 11.2174C19.1667 10 19.75 10 21.5 10H26.5C28.25 10 28.8333 10 28.8333 11.2174C28.8333 12.4348 27.6667 13.0435 27.6667 13.0435ZM20.2809 21.3262L22.6634 12.0033L22.657 12H25.343L25.3366 12.0033L28 22.4254V22.7978C27.9907 22.7977 27.9728 22.7973 27.9472 22.7965C27.8951 22.7948 27.8122 22.7912 27.7057 22.7836C27.4903 22.7681 27.1926 22.737 26.8671 22.6763C26.1339 22.5394 25.6032 22.3138 25.3648 22.0912C23.9549 20.775 22.0842 20.9428 21.1329 21.1204C20.8225 21.1784 20.5341 21.2516 20.2809 21.3262ZM20.3396 12.034L20.3418 12.0335L20.3396 12.034ZM27.6604 12.034L27.6582 12.0335L27.6604 12.034ZM28 24.7979V35C28 35.5523 27.5523 36 27 36H21C20.4477 36 20 35.5523 20 35V23.5532C20 23.5532 22.6667 22.3085 24 23.5532C25.3333 24.7979 28 24.7979 28 24.7979Z" fill="black"/>
<path fill-rule="evenodd" clip-rule="evenodd" d="M10.2929 9.79289C10.6834 9.40237 11.3166 9.40237 11.7071 9.79289L17.2071 15.2929C17.5976 15.6834 17.5976 16.3166 17.2071 16.7071C16.8166 17.0976 16.1834 17.0976 15.7929 16.7071L10.2929 11.2071C9.90237 10.8166 9.90237 10.1834 10.2929 9.79289Z" fill="black"/>
<path fill-rule="evenodd" clip-rule="evenodd" d="M37.2929 38.7071L28.2929 29.7071L29.7071 28.2929L38.7071 37.2929L37.2929 38.7071Z" fill="black"/>
<path d="M21 11H27V13H21V11Z" fill="black"/>
</svg>

<svg
  xmlns="http://www.w3.org/2000/svg"
  width="24"
  height="24"
  viewBox="0 0 24 24"
  fill="none"
  stroke="currentColor"
  stroke-width="2"
  stroke-linecap="round"
  stroke-linejoin="round"
>
  <path
    fill-rule="evenodd"
    d="M24 42c9.941 0 18-8.059 18-18S33.941 6 24 6 6 14.059 6 24s8.059 18 18 18m0 2c11.046 0 20-8.954 20-20S35.046 4 24 4 4 12.954 4 24s8.954 20 20 20"
    clip-rule="evenodd"
  />
  <path
    fill-rule="evenodd"
    d="M27.667 13.044 30 22.174v13.391C30 36.91 28.955 38 27.667 38h-7.334C19.045 38 18 36.91 18 35.565V22.174l2.333-9.13s-1.166-.61-1.166-1.827S19.75 10 21.5 10h5c1.75 0 2.333 0 2.333 1.217s-1.166 1.826-1.166 1.826m-7.386 8.282 2.382-9.323-.006-.003h2.686l-.006.003L28 22.425v.373l-.053-.001a7.646 7.646 0 0 1-1.08-.12c-.733-.138-1.264-.363-1.502-.586-1.41-1.316-3.28-1.148-4.232-.97a9 9 0 0 0-.852.205m.059-9.292h.002zm7.32 0h-.002zM28 24.798V35a1 1 0 0 1-1 1h-6a1 1 0 0 1-1-1V23.553s2.667-1.245 4 0 4 1.245 4 1.245"
    clip-rule="evenodd"
  />
  <path
    fill-rule="evenodd"
    d="M10.293 9.793a1 1 0 0 1 1.414 0l5.5 5.5a1 1 0 0 1-1.414 1.414l-5.5-5.5a1 1 0 0 1 0-1.414"
    clip-rule="evenodd"
  />
  <path
    fill-rule="evenodd"
    d="m37.293 38.707-9-9 1.414-1.414 9 9z"
    clip-rule="evenodd"
  />
  <path d="M21 11h6v2h-6z" />
</svg>
